Sources/FrostedUI/Resources/Icons.xcassets/cursor12.imageset/cursor-12.svg

<svg width="12" height="12" viewBox="0 0 12 12" fill="none" xmlns="http://www.w3.org/2000/svg" data-fui-icon="true">
  <path
    d="M0.665161 2.7403C0.208122 1.45127 1.45133 0.208068 2.74036 0.665108L10.6534 3.47175C12.0108 3.95312 12.1039 5.80923 10.8615 6.44538L10.7365 6.503L9.37024 7.07233L10.587 8.28815C11.2216 8.92276 11.2216 9.9524 10.587 10.587C9.95246 11.2216 8.92281 11.2215 8.28821 10.587L7.07239 9.37019L6.50305 10.7364C5.93062 12.1083 3.96876 12.0547 3.4718 10.6534L0.665161 2.7403ZM2.16907 2.07331C2.15014 2.07802 2.1279 2.08909 2.10852 2.10847C2.08914 2.12785 2.07808 2.15008 2.07336 2.16901C2.0695 2.18471 2.06769 2.20681 2.07922 2.23933L4.88586 10.1524C4.89922 10.19 4.91553 10.2054 4.92786 10.2139C4.94404 10.225 4.96935 10.2346 5.00012 10.2354C5.03073 10.2362 5.05566 10.228 5.07239 10.2178C5.08516 10.21 5.10282 10.1961 5.11829 10.1592L6.11926 7.75983C6.2156 7.52913 6.42086 7.36205 6.66614 7.31355C6.91153 7.26507 7.16505 7.34175 7.34192 7.51862L9.34875 9.52644C9.39758 9.57518 9.4777 9.57522 9.52649 9.52644C9.57528 9.47764 9.57524 9.39752 9.52649 9.3487L7.51868 7.34187C7.3418 7.16499 7.26513 6.91148 7.3136 6.66608C7.3621 6.42081 7.52918 6.21555 7.75989 6.11921L10.1593 5.11823C10.1961 5.10277 10.2101 5.0851 10.2179 5.07233C10.2281 5.05561 10.2363 5.03068 10.2355 5.00007C10.2346 4.9693 10.2251 4.94399 10.214 4.9278C10.2054 4.91547 10.1901 4.89917 10.1525 4.88581L2.23938 2.07917C2.20686 2.06764 2.18476 2.06945 2.16907 2.07331Z"
    fill="currentColor"
  />
</svg>

<svg xmlns="http://www.w3.org/2000/svg" width="12" height="12" fill="none" data-fui-icon="true" viewBox="0 0 12 12"><path fill="currentColor" d="M.665 2.74C.208 1.451 1.451.208 2.74.665l7.913 2.807c1.358.481 1.45 2.337.208 2.973l-.125.058-1.366.57 1.217 1.215a1.626 1.626 0 0 1-2.299 2.299L7.072 9.37l-.569 1.366c-.572 1.372-2.534 1.319-3.031-.083zm1.504-.667a.13.13 0 0 0-.06.035.13.13 0 0 0-.036.061.1.1 0 0 0 .006.07l2.807 7.913c.013.038.03.053.042.062q.025.018.072.021.047 0 .072-.017a.1.1 0 0 0 .046-.059l1.001-2.4a.75.75 0 0 1 1.223-.24l2.007 2.007a.126.126 0 0 0 .177 0 .126.126 0 0 0 0-.177L7.52 7.342a.75.75 0 0 1 .24-1.223l2.4-1a.1.1 0 0 0 .059-.047.13.13 0 0 0 .018-.072q-.003-.047-.022-.072c-.009-.013-.024-.029-.062-.042L2.24 2.079a.1.1 0 0 0-.07-.006"/></svg>
